cypex/img/main/strengthsBg__decor.svg

<svg width="1920" height="471" fill="none" xmlns="http://www.w3.org/2000/svg"><path opacity=".2" d="M961.16 195.131h-.5v.005l.5-.005Zm.344 33.038h.5v-.005l-.5.005Zm0 29.164a2.666 2.666 0 1 0 0 5.332 2.666 2.666 0 0 0 0-5.332ZM1022 116.86v.5-.5Zm210.5 145.473a2.671 2.671 0 0 0-2.67 2.667c0 1.473 1.2 2.667 2.67 2.667s2.67-1.194 2.67-2.667c0-1.473-1.2-2.667-2.67-2.667ZM811 69.162v-.5.5Zm31 322.671a2.667 2.667 0 1 0 0 5.334 2.667 2.667 0 0 0 0-5.334Zm-3.902-163.664v-.5.5ZM1508 190h.5-.5Zm213 96h.5-.5Zm-213-121.14h-.5.5Zm-547.34 30.276.344 33.039 1-.011-.344-33.038-1 .01Zm.344 33.033V260h1v-31.831h-1Zm-.344-189.042v156.004h1V39.127h-1Zm0 0V68.86h1V39.127h-1ZM1507.5 164.86V190h1v-25.14h-1ZM960.66 0v27.08h1V0h-1Zm0 27.08v12.047h1V27.081h-1ZM232.5 197.163V420.5h1V197.162h-1Zm776.66-79.802H1022v-1h-12.84v1Zm12.84 0h438v-1h-438v1Zm0 0h88.93v-1H1022v1Zm142.07 53.14H1185v-1h-20.93v1Zm67.93 47V265h1v-47.5h-1Zm324 21h117v-1h-117v1Zm164.5 47.5v136h1V286h-1Zm48.5 184.5h165v-1h-165v1ZM185 468H-28v1h213v-1ZM931.126 68.662H811v1h120.126v-1Zm-120.126 0H361v1h450v-1Zm0 1h27.08v-1H811v1Zm74.58 47.5v63.007h1v-63.007h-1Zm-47.482 110.507h-77.69v1h77.69v-1ZM760.415 302.5H794v-1h-33.585v1ZM841.5 350v44.5h1V350h-1ZM794 302.5c26.234 0 47.5 21.266 47.5 47.5h1c0-26.786-21.714-48.5-48.5-48.5v1Zm-71-37.415c0 20.664 16.751 37.415 37.415 37.415v-1c-20.111 0-36.415-16.304-36.415-36.415h-1Zm37.408-37.416c-20.664 0-37.408 16.752-37.408 37.416h1c0-20.112 16.297-36.416 36.408-36.416v-1Zm125.172-47.5c0 26.234-21.248 47.5-47.482 47.5v1c26.786 0 48.482-21.714 48.482-48.5h-1Zm-47.5-110.507c26.234 0 47.5 21.266 47.5 47.5h1c0-26.786-21.714-48.5-48.5-48.5v1ZM1185 170.5c25.96 0 47 21.043 47 47h1c0-26.51-21.49-48-48-48v1Zm-48-27.07c0 14.95 12.12 27.07 27.07 27.07v-1c-14.4 0-26.07-11.672-26.07-26.07h-1Zm-26.07-26.07c14.4 0 26.07 11.672 26.07 26.07h1c0-14.95-12.12-27.07-27.07-27.07v1ZM960.66 39.127c0 16.312-13.223 29.535-29.534 29.535v1c16.863 0 30.534-13.67 30.534-30.535h-1ZM233.5 197.162c0-70.416 57.084-127.5 127.5-127.5v-1c-70.969 0-128.5 57.531-128.5 128.5h1ZM1720.5 422c0 26.786 21.71 48.5 48.5 48.5v-1c-26.23 0-47.5-21.266-47.5-47.5h-1Zm-213-232c0 26.786 21.71 48.5 48.5 48.5v-1c-26.23 0-47.5-21.266-47.5-47.5h-1Zm165.5 48.5c26.23 0 47.5 21.266 47.5 47.5h1c0-26.786-21.71-48.5-48.5-48.5v1Zm-164.5-73.64c0-26.786-21.71-48.5-48.5-48.5v1c26.23 0 47.5 21.266 47.5 47.5h1ZM232.5 420.5c0 26.233-21.266 47.5-47.5 47.5v1c26.786 0 48.5-21.714 48.5-48.5h-1ZM960.66 68.86c0 26.786 21.714 48.5 48.5 48.5v-1c-26.233 0-47.5-21.267-47.5-47.5h-1Z" fill="url(#a)"/><defs><linearGradient id="a" x1="273.846" y1="470" x2="281.837" y2="-26.585" gradientUnits="userSpaceOnUse"><stop stop-color="#E5FF5D"/><stop offset="1" stop-color="#5DFFFF"/></linearGradient></defs></svg>

<svg width="1920" height="471" viewBox="0 0 1920 471" fill="none" xmlns="http://www.w3.org/2000/svg">
<path opacity="0.2" d="M961.16 195.131L960.66 195.131L960.66 195.136L961.16 195.131ZM961.504 228.169L962.004 228.169L962.004 228.164L961.504 228.169ZM961.504 257.333C960.031 257.333 958.838 258.527 958.838 260C958.838 261.473 960.031 262.667 961.504 262.667C962.977 262.667 964.171 261.473 964.171 260C964.171 258.527 962.977 257.333 961.504 257.333ZM1022 116.86L1022 117.36L1022 116.86ZM1232.5 262.333C1231.03 262.333 1229.83 263.527 1229.83 265C1229.83 266.473 1231.03 267.667 1232.5 267.667C1233.97 267.667 1235.17 266.473 1235.17 265C1235.17 263.527 1233.97 262.333 1232.5 262.333ZM811 69.1618L811 68.6618L811 69.1618ZM842 391.833C840.527 391.833 839.333 393.027 839.333 394.5C839.333 395.973 840.527 397.167 842 397.167C843.473 397.167 844.667 395.973 844.667 394.5C844.667 393.027 843.473 391.833 842 391.833ZM838.098 228.169L838.098 227.669L838.098 228.169ZM1508 190L1508.5 190L1508 190ZM1721 286L1721.5 286L1721 286ZM1508 164.86L1507.5 164.86L1508 164.86ZM960.66 195.136L961.004 228.175L962.004 228.164L961.66 195.126L960.66 195.136ZM961.004 228.169L961.004 260L962.004 260L962.004 228.169L961.004 228.169ZM960.66 39.1273L960.66 195.131L961.66 195.131L961.66 39.1273L960.66 39.1273ZM960.66 39.1273L960.66 68.8599L961.66 68.8599L961.66 39.1273L960.66 39.1273ZM1507.5 164.86L1507.5 190L1508.5 190L1508.5 164.86L1507.5 164.86ZM960.66 -4.2546e-05L960.66 27.0808L961.66 27.0808L961.66 -4.25023e-05L960.66 -4.2546e-05ZM960.66 27.0808L960.66 39.1273L961.66 39.1273L961.66 27.0808L960.66 27.0808ZM232.5 197.162L232.5 420.5L233.5 420.5L233.5 197.162L232.5 197.162ZM1009.16 117.36L1022 117.36L1022 116.36L1009.16 116.36L1009.16 117.36ZM1022 117.36L1460 117.36L1460 116.36L1022 116.36L1022 117.36ZM1022 117.36L1110.93 117.36L1110.93 116.36L1022 116.36L1022 117.36ZM1164.07 170.5L1185 170.5L1185 169.5L1164.07 169.5L1164.07 170.5ZM1232 217.5L1232 265L1233 265L1233 217.5L1232 217.5ZM1556 238.5L1673 238.5L1673 237.5L1556 237.5L1556 238.5ZM1720.5 286L1720.5 422L1721.5 422L1721.5 286L1720.5 286ZM1769 470.5L1934 470.5L1934 469.5L1769 469.5L1769 470.5ZM185 468L-28 468L-28 469L185 469L185 468ZM931.126 68.6618L811 68.6618L811 69.6618L931.126 69.6618L931.126 68.6618ZM811 68.6618L361 68.6618L361 69.6618L811 69.6618L811 68.6618ZM811 69.6618L838.08 69.6618L838.08 68.6618L811 68.6618L811 69.6618ZM885.58 117.162L885.58 180.169L886.58 180.169L886.58 117.162L885.58 117.162ZM838.098 227.669C812.591 227.669 783.09 227.669 760.408 227.669L760.408 228.669C783.09 228.669 812.591 228.669 838.098 228.669L838.098 227.669ZM760.415 302.5L794 302.5L794 301.5L760.415 301.5L760.415 302.5ZM841.5 350L841.5 394.5L842.5 394.5L842.5 350L841.5 350ZM794 302.5C820.234 302.5 841.5 323.766 841.5 350L842.5 350C842.5 323.214 820.786 301.5 794 301.5L794 302.5ZM723 265.085C723 285.749 739.751 302.5 760.415 302.5L760.415 301.5C740.304 301.5 724 285.196 724 265.085L723 265.085ZM760.408 227.669C739.744 227.669 723 244.421 723 265.085L724 265.085C724 244.973 740.297 228.669 760.408 228.669L760.408 227.669ZM885.58 180.169C885.58 206.403 864.332 227.669 838.098 227.669L838.098 228.669C864.884 228.669 886.58 206.955 886.58 180.169L885.58 180.169ZM838.08 69.6618C864.314 69.6618 885.58 90.9283 885.58 117.162L886.58 117.162C886.58 90.376 864.866 68.6618 838.08 68.6618L838.08 69.6618ZM1185 170.5C1210.96 170.5 1232 191.543 1232 217.5L1233 217.5C1233 190.99 1211.51 169.5 1185 169.5L1185 170.5ZM1137 143.43C1137 158.38 1149.12 170.5 1164.07 170.5L1164.07 169.5C1149.67 169.5 1138 157.828 1138 143.43L1137 143.43ZM1110.93 117.36C1125.33 117.36 1137 129.032 1137 143.43L1138 143.43C1138 128.48 1125.88 116.36 1110.93 116.36L1110.93 117.36ZM960.66 39.1273C960.66 55.4388 947.437 68.6618 931.126 68.6618L931.126 69.6618C947.989 69.6618 961.66 55.9911 961.66 39.1273L960.66 39.1273ZM233.5 197.162C233.5 126.746 290.584 69.6618 361 69.6618L361 68.6618C290.031 68.6618 232.5 126.193 232.5 197.162L233.5 197.162ZM1720.5 422C1720.5 448.786 1742.21 470.5 1769 470.5L1769 469.5C1742.77 469.5 1721.5 448.234 1721.5 422L1720.5 422ZM1507.5 190C1507.5 216.786 1529.21 238.5 1556 238.5L1556 237.5C1529.77 237.5 1508.5 216.234 1508.5 190L1507.5 190ZM1673 238.5C1699.23 238.5 1720.5 259.766 1720.5 286L1721.5 286C1721.5 259.214 1699.79 237.5 1673 237.5L1673 238.5ZM1508.5 164.86C1508.5 138.074 1486.79 116.36 1460 116.36L1460 117.36C1486.23 117.36 1507.5 138.626 1507.5 164.86L1508.5 164.86ZM232.5 420.5C232.5 446.733 211.234 468 185 468L185 469C211.786 469 233.5 447.286 233.5 420.5L232.5 420.5ZM960.66 68.8599C960.66 95.6457 982.374 117.36 1009.16 117.36L1009.16 116.36C982.927 116.36 961.66 95.0934 961.66 68.8599L960.66 68.8599Z" fill="url(#paint0_linear_2_1254)"/>
<defs>
<linearGradient id="paint0_linear_2_1254" x1="273.846" y1="470" x2="281.837" y2="-26.5854" gradientUnits="userSpaceOnUse">
<stop stop-color="#E5FF5D"/>
<stop offset="1" stop-color="#5DFFFF"/>
</linearGradient>
</defs>
</svg>
